X: 3
T: Merrily Kissed The Quaker
R: slide
M: 12/8
L: 1/8
K: Gmaj
D|G2B d2d|edB dBA|G2B dBG|ABA A2D|G2B d2d|edB dBA|GAB D2E|GAG G2D|


Tune 70	Setting 24522

